Simply-Orange-Circles/scalable/apps/gtkhash.svg

<?xml version="1.0" encoding="UTF-8" standalone="no"?>
<svg
   xmlns:dc="http://purl.org/dc/elements/1.1/"
   xmlns:cc="http://creativecommons.org/ns#"
   xmlns:rdf="http://www.w3.org/1999/02/22-rdf-syntax-ns#"
   xmlns:svg="http://www.w3.org/2000/svg"
   xmlns="http://www.w3.org/2000/svg"
   xmlns:sodipodi="http://sodipodi.sourceforge.net/DTD/sodipodi-0.dtd"
   xmlns:inkscape="http://www.inkscape.org/namespaces/inkscape"
   width="48"
   height="48"
   viewBox="0 0 12.7 12.7"
   version="1.1"
   id="svg8"
   sodipodi:docname="gtkhash.svg"
   inkscape:version="0.92.4 (5da689c313, 2019-01-14)">
  <metadata
     id="metadata14">
    <rdf:RDF>
      <cc:Work
         rdf:about="">
        <dc:format>image/svg+xml</dc:format>
        <dc:type
           rdf:resource="http://purl.org/dc/dcmitype/StillImage" />
        <dc:title></dc:title>
      </cc:Work>
    </rdf:RDF>
  </metadata>
  <defs
     id="defs12" />
  <sodipodi:namedview
     pagecolor="#ffffff"
     bordercolor="#666666"
     borderopacity="1"
     objecttolerance="10"
     gridtolerance="10"
     guidetolerance="10"
     inkscape:pageopacity="0"
     inkscape:pageshadow="2"
     inkscape:window-width="1087"
     inkscape:window-height="480"
     id="namedview10"
     showgrid="false"
     inkscape:zoom="4.9166667"
     inkscape:cx="2.1355932"
     inkscape:cy="24"
     inkscape:window-x="0"
     inkscape:window-y="25"
     inkscape:window-maximized="0"
     inkscape:current-layer="svg8" />
  <g
     id="g6"
     style="fill:#ff7f2a">
    <path
       d="M 6.344,0.077 A 6.267,6.267 0 0 0 0.076,6.344 6.267,6.267 0 0 0 6.344,12.611 6.267,6.267 0 0 0 12.611,6.344 6.267,6.267 0 0 0 6.344,0.077 Z M 6.326,1.009 a 5.388,5.388 0 0 1 5.388,5.39 5.388,5.388 0 0 1 -5.388,5.387 5.388,5.388 0 0 1 -5.389,-5.388 5.388,5.388 0 0 1 5.39,-5.389 z"
       id="path2"
       inkscape:connector-curvature="0" />
    <path
       d="M 5.665,2.276 5.1,4.576 H 3.099 V 5.43 H 4.884 L 4.418,7.281 H 2.468 V 8.129 H 4.213 L 3.636,10.424 H 4.529 L 5.1,8.13 h 1.625 l -0.57,2.295 H 7.041 L 7.618,8.13 H 9.597 V 7.282 H 7.833 l 0.454,-1.85 h 1.946 V 4.578 H 8.503 L 9.074,2.277 H 8.188 l -0.582,2.3 H 5.987 l 0.576,-2.3 z M 5.782,5.43 H 7.395 L 6.94,7.281 H 5.316 Z"
       id="path4"
       inkscape:connector-curvature="0" />
  </g>
</svg>

<svg xmlns="http://www.w3.org/2000/svg" width="48" height="48" viewBox="0 0 12.7 12.7"><g fill="#ff7f2a"><path d="M6.34.08A6.27 6.27 0 0 0 .08 6.34a6.27 6.27 0 0 0 6.26 6.27 6.27 6.27 0 0 0 6.27-6.27A6.27 6.27 0 0 0 6.34.08zM6.33 1A5.39 5.39 0 0 1 11.7 6.4a5.39 5.39 0 0 1-5.38 5.39 5.39 5.39 0 0 1-5.4-5.4 5.39 5.39 0 0 1 5.4-5.38z"/><path d="M5.67 2.28l-.57 2.3h-2v.85h1.78l-.46 1.85H2.47v.85H4.2l-.57 2.3h.89l.57-2.3h1.63l-.58 2.3h.9l.57-2.3H9.6v-.85H7.83l.46-1.85h1.94v-.85H8.5l.57-2.3H8.2l-.58 2.3H5.99l.57-2.3zm.11 3.15H7.4l-.45 1.85H5.32z"/></g></svg>
